logos/observablehq.svg

<?xml version="1.0" encoding="UTF-8"?>
<svg width="256px" height="267px" viewBox="0 0 256 267" version="1.1" xmlns="http://www.w3.org/2000/svg" preserveAspectRatio="xMidYMid">
    <title>Observable</title>
    <g>
        <path d="M128,221.867008 C116.180992,221.867008 105.940992,219.292672 97.28,214.146048 C88.6498304,209.01888 81.7499136,201.755648 77.3653504,193.181696 C72.7036928,184.260608 69.2912128,174.826496 67.2106496,165.108736 C65.0031104,154.569728 63.9277056,143.854592 64,133.12 C64,124.619776 64.5547008,116.494336 65.6746496,108.724224 C66.7840512,100.964352 68.8427008,93.075456 71.8400512,85.0685952 C74.8372992,77.061632 78.6987008,70.1197312 83.4026496,64.2328576 C88.2999296,58.2019072 94.6320384,53.2928512 101.909299,49.8854912 C109.546496,46.2073856 118.228992,44.3732992 128,44.3732992 C139.819008,44.3732992 150.059008,46.9470208 158.72,52.0942592 C167.350272,57.22112 174.249984,64.4846592 178.634752,73.0582016 C183.264256,81.8835456 186.645504,91.241472 188.78976,101.131264 C190.922752,111.01184 192,121.68192 192,133.12 C192,141.620224 191.444992,149.745664 190.32576,157.515776 C189.131776,165.582848 187.022336,173.512704 184.032256,181.1712 C180.938752,189.177856 177.098752,196.120576 172.469248,202.007552 C167.839744,207.893504 161.717248,212.676608 154.090496,216.354816 C146.463744,220.033024 137.771008,221.867008 128,221.867008 Z M150.592512,156.61568 C156.71296,150.470656 160.11776,141.96736 160,133.12 C160,123.978752 156.93824,116.1472 150.827008,109.62432 C144.704512,103.10144 137.09824,99.84 128,99.84 C118.90176,99.84 111.296512,103.10144 105.172992,109.62432 C99.1776768,115.837952 95.8666752,124.31872 96,133.12 C96,142.261248 99.0613504,150.0928 105.172992,156.61568 C111.296512,163.13856 118.90176,166.4 128,166.4 C137.09824,166.4 144.62976,163.13856 150.592512,156.61568 Z M128,266.24 C198.687744,266.24 256,206.635008 256,133.12 C256,59.60448 198.687744,0 128,0 C57.3119488,0 0,59.60448 0,133.12 C0,206.635008 57.3119488,266.24 128,266.24 Z" fill="#000000"></path>
    </g>
</svg>

<svg preserveAspectRatio="xMidYMid" viewBox="0 0 256 267" xmlns="http://www.w3.org/2000/svg">
  <path d="M128 221.867c-11.819 0-22.059-2.574-30.72-7.721-8.63-5.127-15.53-12.39-19.915-20.964-4.661-8.921-8.074-18.356-10.154-28.073A151.012 151.012 0 0 1 64 133.12c0-8.5.555-16.626 1.675-24.396 1.11-7.76 3.168-15.649 6.165-23.655 2.997-8.007 6.859-14.95 11.563-20.836 4.897-6.031 11.229-10.94 18.506-14.348 7.637-3.678 16.32-5.512 26.091-5.512 11.819 0 22.059 2.574 30.72 7.721 8.63 5.127 15.53 12.39 19.915 20.964 4.63 8.826 8.01 18.183 10.155 28.073 2.133 9.88 3.21 20.55 3.21 31.989 0 8.5-.555 16.626-1.674 24.396a108.848 108.848 0 0 1-6.294 23.655c-3.093 8.007-6.933 14.95-11.563 20.837-4.63 5.886-10.752 10.669-18.379 14.347-7.626 3.678-16.319 5.512-26.09 5.512Zm22.593-65.251c6.12-6.145 9.525-14.649 9.407-23.496 0-9.141-3.062-16.973-9.173-23.496-6.122-6.523-13.729-9.784-22.827-9.784-9.098 0-16.703 3.261-22.827 9.784-5.995 6.214-9.306 14.695-9.173 23.496 0 9.141 3.061 16.973 9.173 23.496 6.124 6.523 13.729 9.784 22.827 9.784 9.098 0 16.63-3.261 22.593-9.784ZM128 266.24c70.688 0 128-59.605 128-133.12C256 59.604 198.688 0 128 0S0 59.604 0 133.12c0 73.515 57.312 133.12 128 133.12Z"/>
</svg>
